Newaita/actions/22/im-user-offline.svg

<?xml version="1.0" encoding="UTF-8"?>
<svg xmlns="http://www.w3.org/2000/svg" xmlns:xlink="http://www.w3.org/1999/xlink" width="22pt" height="22pt" viewBox="0 0 22 22" version="1.1">
<g id="surface1">
<path style=" stroke:none;fill-rule:nonzero;fill:rgb(0%,0%,0%);fill-opacity:0.392157;" d="M 7.691406 10.507812 Z M 7.691406 10.507812 C 5.910156 11.15625 4.234375 12.503906 3.757812 14.402344 C 3.554688 15.308594 3.667969 16.246094 3.636719 17.164062 C 3.648438 18.066406 3.621094 18.964844 3.652344 19.863281 C 3.742188 20.394531 4.3125 20.4375 4.742188 20.40625 L 17.507812 20.40625 C 18.09375 20.421875 18.246094 19.804688 18.191406 19.339844 C 18.179688 17.898438 18.214844 16.453125 18.171875 15.015625 C 18.003906 13.144531 16.566406 11.640625 14.9375 10.851562 C 14.605469 10.753906 14.242188 10.367188 13.910156 10.625 C 13.359375 10.894531 12.769531 11.089844 12.164062 11.199219 L 12.707031 12.480469 C 13.417969 12.222656 13.824219 11.980469 14.34375 12.066406 C 15.667969 12.695312 16.886719 13.953125 16.828125 15.511719 L 16.828125 19.042969 L 5.003906 19.042969 C 5.011719 17.742188 4.988281 16.441406 5.015625 15.140625 C 5.152344 13.671875 6.355469 12.574219 7.632812 11.996094 C 8.058594 12.125 8.867188 12.328125 9.097656 12.453125 L 9.667969 11.199219 C 8.976562 11.074219 8.308594 10.839844 7.691406 10.507812 Z M 7.691406 10.507812 "/>
<path style=" stroke:none;fill-rule:nonzero;fill:rgb(0%,0%,0%);fill-opacity:0.392157;" d="M 10.914062 1.035156 C 8.394531 1.035156 6.367188 3.0625 6.367188 5.582031 C 6.367188 8.101562 8.394531 10.132812 10.914062 10.132812 C 13.433594 10.132812 15.464844 8.101562 15.464844 5.582031 C 15.464844 3.0625 13.433594 1.035156 10.914062 1.035156 Z M 10.914062 2.445312 C 12.679688 2.445312 14.097656 3.867188 14.097656 5.628906 C 14.097656 7.394531 12.679688 8.8125 10.914062 8.8125 C 9.152344 8.8125 7.730469 7.394531 7.730469 5.628906 C 7.730469 3.867188 9.152344 2.445312 10.914062 2.445312 Z M 10.914062 2.445312 "/>
<path style=" stroke:none;fill-rule:nonzero;fill:rgb(0%,0%,0%);fill-opacity:0.392157;" d="M 10.914062 11.273438 C 10.628906 11.261719 10.414062 11.460938 10.234375 11.65625 C 9.929688 11.941406 9.964844 12.476562 10.289062 12.734375 C 10.386719 12.828125 10.476562 12.9375 10.609375 12.992188 C 10.328125 13.675781 10.28125 14.425781 10.242188 15.15625 C 10.21875 16.125 10.246094 17.113281 10.519531 18.046875 C 10.601562 18.25 10.679688 18.585938 10.949219 18.585938 C 11.191406 18.484375 11.257812 18.1875 11.335938 17.960938 C 11.605469 16.949219 11.625 15.890625 11.574219 14.851562 C 11.523438 14.222656 11.464844 13.582031 11.222656 12.992188 C 11.410156 12.894531 11.554688 12.726562 11.6875 12.566406 C 11.902344 12.261719 11.816406 11.820312 11.53125 11.59375 C 11.371094 11.414062 11.167969 11.265625 10.914062 11.273438 Z M 10.914062 11.273438 "/>
</g>
</svg>

<svg xmlns="http://www.w3.org/2000/svg" width="22pt" height="22pt" viewBox="0 0 22 22"><g fill-opacity=".392"><path d="M7.691 10.508zm0 0c-1.78.648-3.457 1.996-3.933 3.894-.203.907-.09 1.844-.121 2.762.011.902-.016 1.8.015 2.7.09.53.66.573 1.09.542h12.766c.586.016.738-.601.683-1.066-.011-1.442.024-2.887-.02-4.324-.167-1.871-1.605-3.375-3.233-4.164-.333-.098-.696-.485-1.028-.227-.55.27-1.14.465-1.746.574l.543 1.281c.711-.257 1.117-.5 1.637-.414 1.324.63 2.543 1.887 2.484 3.446v3.531H5.004c.008-1.3-.016-2.602.012-3.902.136-1.47 1.34-2.567 2.617-3.145.426.129 1.234.332 1.465.457l.57-1.254a6.687 6.687 0 0 1-1.977-.691zm0 0M10.914 1.035a4.536 4.536 0 0 0-4.547 4.547 4.54 4.54 0 0 0 4.547 4.55c2.52 0 4.55-2.03 4.55-4.55a4.54 4.54 0 0 0-4.55-4.547zm0 1.41a3.177 3.177 0 0 1 3.184 3.184 3.174 3.174 0 0 1-3.184 3.184A3.177 3.177 0 0 1 7.73 5.628a3.18 3.18 0 0 1 3.184-3.184zm0 0"/><path d="M10.914 11.273c-.285-.011-.5.188-.68.383-.304.285-.27.82.055 1.078.098.094.188.204.32.258-.28.684-.328 1.434-.367 2.164-.023.969.004 1.957.278 2.89.082.204.16.54.43.54.241-.102.308-.398.386-.625.27-1.012.289-2.07.238-3.11-.05-.628-.11-1.269-.351-1.859.187-.097.332-.265.464-.426.215-.304.13-.746-.156-.972-.16-.18-.363-.328-.617-.32zm0 0"/></g></svg>
